packages/bezier-icons/icons/image.svg

<svg width="24" height="24" viewBox="0 0 24 24" fill="none" xmlns="http://www.w3.org/2000/svg">
<path fill-rule="evenodd" clip-rule="evenodd" d="M5 19H19V5H5V19ZM19.5 3H4.5C3.673 3 3 3.673 3 4.5V19.5C3 20.327 3.673 21 4.5 21H19.5C20.327 21 21 20.327 21 19.5V4.5C21 3.673 20.327 3 19.5 3ZM18.0002 18.0001V12.0001L14.0052 10.0001L6.0002 14.0001V18.0001H18.0002ZM10.0002 8.00012C10.0002 9.10412 9.1042 10.0001 8.0002 10.0001C6.8962 10.0001 6.0002 9.10412 6.0002 8.00012C6.0002 6.89612 6.8962 6.00012 8.0002 6.00012C9.1042 6.00012 10.0002 6.89612 10.0002 8.00012Z" fill="#313234"/>
</svg>

<svg xmlns="http://www.w3.org/2000/svg" width="24" height="24" fill="none" viewBox="0 0 24 24"><path fill="#313234" fill-rule="evenodd" d="M5 19h14V5H5zM19.5 3h-15C3.673 3 3 3.673 3 4.5v15c0 .827.673 1.5 1.5 1.5h15c.827 0 1.5-.673 1.5-1.5v-15c0-.827-.673-1.5-1.5-1.5M18 18v-6l-3.995-2L6 14v4zM10 8A2 2 0 1 1 6 8 2 2 0 0 1 10 8" clip-rule="evenodd"/></svg>
